X:0146
T:Major Jas. Campbell's Quick Step W.F.R.
M:2/4
L:1/16
Q:1/4=84
I: :: ::
Z:Jack Campin * www.campin.me.uk * 2009
K:D
 Ac |d2f2 (fe)(dc)|d2`A2 (AG)(FE)|F2A2 (defd)|e2`A2  A2
(Bc)|d2f2 (fe)(dc)|d2`A2 (AG)(FE)|F2A2 (defd)|e6     :|
(fd)|e3`c  A2``A2 |g2(fe) f2(ed) |e3`c  A2g2 |g2(fe) f2
fg  |a2f2  d2`(ga)|b2`g2  e2(dc) |d2f2  fedc |d6     :|
<end>
<start>
